X: 6242
T: Carol Of The Birds
R: jig
M: 6/8
K: Dmajor
F/G/|"D"A2 A ABG|F2 E D2 A,|"C" G2 G "D"FED|"A"E3E2 F/G/|
"D"A2 A ABG|F2 E D2 D/D/|"G" G2 F "A"EDE|"D"D3D2 B/c/||
"G" d2 d d2 A|dcB A2 D|"Em"G2 G "D"FED|"G"EFG "A"A2D|
"G"d2 d d2A|"G"dcB "A"A2D|"Em"G2 G "D"FED|"A"A,DC "D"D2||

